X:1
T:Title
%%score { 1 | ( 2 3 ) }
L:1/8
Q:1/4=75
M:2/4
K:D
V:1 treble nm="Grand Piano"
V:2 bass 
V:3 bass 
V:1
 [FA]F F2 | F/E/D D2 | DG G2 | G/A/B [FA]2 | F[FA] [FA]2 | G/A/B B2 | A/A/F [CE][CF] | D2 .D2 | %8
w: T.~Martin~Towne * *||||||||
 [FA][GB]/>[Gc]/ [Fd][Ac]/>[GB]/ | [FA]2 .[DF]2 | [CE][CE]/>[DF]/ [EG][CE] | [DF]B/B/ .A2 | %12
w: ||||
 [FA][GB]/>[Gc]/ [Fd][Ac]/>B/ | [DFA]2 .[A,DF]2 | [A,CE][CGB]/>[CGB]/ [CEA][K:bass][G,A,C] | %15
w: |||
 [F,A,D]4 |] %16
w: |
V:2
 [D,D][D,A,D] [D,A,D]2 | [D,A,D]/[D,G,D]/[D,F,] [D,F,]2 | [G,B,][G,B,D] [G,B,D]2 | %3
 [G,B,D]/[G,CD]/[G,D] [D,D]2 | [D,D][D,D] [D,D]2 | [G,B,]/[K:treble][G,CG]/[G,DG] [G,DG]2 | %6
 [A,DF]/[A,DF]/[K:bass][A,D] [A,,G,][A,,A,] | [D,F,]2 .[D,F,]2 | [D,D][D,D]/>[D,D]/ [D,D][D,D] | %9
 [D,D]2 .[D,A,]2 | [A,,A,][A,,A,]/>[A,,A,]/ [A,,A,][A,,A,] | z[K:treble] G/G/ .F2 | %12
 [D,D][D,D]/>[D,D]/ .[D,D]3/2 z/4 G/4 | D,2 .D,2 | A,,A,,/>A,,/ A,,A,, | D,4 |] %16
V:3
 x4 | x4 | x4 | x4 | x4 | x/[K:treble] x7/2 | x[K:bass] x3 | x4 | x4 | x4 | x4 | %11
 [D,A,]4[K:treble] | z2 z [D,D] | x4 | x4 | x4 |] %16

